X:335
T:Lord Lovat's Lament #1 
C:Joe Buchanan's Scottish Tome - Page 011.1
I:011 1
R:March
Z:Carl Allison
L:1/8
M:2/4
K:A
A>B | c2 (ce) dcBA | (c<e) ef e2 (fg) | a2 (ea) fecA | (c<B)(B>c) B2 (A>B) |
c2 (ce) dcBA | (c<e) ef e2 (cA) | (d>e) f (e/d/) (Ac)dB | B2 (A>B) A2 (f>g) |]
a2 (ea) fecA | (c<e)(ef) e2 (fg) | a2 (ea) fecA | (c<B)(B>c) B2 (A>B) |
c2 (ce) dcBA | (c<e)(ef) e2 (cA) | (d>e) f (e/d/) (c<e)(dB) | A2 (A>B) A2 |]

